libs/svg/case.svg

<svg width="16" height="16" viewBox="0 0 16 16" fill="none" xmlns="http://www.w3.org/2000/svg">
<path d="M5.5 5.5V3C5.5 2.72386 5.72386 2.5 6 2.5H10C10.2761 2.5 10.5 2.72386 10.5 3V5.5M5.5 5.5H10.5M5.5 5.5H4M10.5 5.5H12M12 5.5H14C14.2761 5.5 14.5 5.72386 14.5 6V13C14.5 13.2761 14.2761 13.5 14 13.5H12M12 5.5V13.5M12 13.5H4M4 5.5H2C1.72386 5.5 1.5 5.72386 1.5 6V13C1.5 13.2761 1.72386 13.5 2 13.5H4M4 5.5V13.5" stroke="black"/>
</svg>

<svg
  xmlns="http://www.w3.org/2000/svg"
  width="16"
  height="16"
  fill="none"
  viewBox="0 0 16 16"
>
  <path
    stroke="currentColor"
    stroke-width="1"
    d="M5.5 5.5V3a.5.5 0 0 1 .5-.5h4a.5.5 0 0 1 .5.5v2.5m-5 0h5m-5 0H4m6.5 0H12m0 0h2a.5.5 0 0 1 .5.5v7a.5.5 0 0 1-.5.5h-2m0-8v8m0 0H4m0-8H2a.5.5 0 0 0-.5.5v7a.5.5 0 0 0 .5.5h2m0-8v8"
  />
</svg>
